icons/lines/uieight.svg

<svg xmlns="http://www.w3.org/2000/svg" width="24" height="24" viewBox="0 0 24 24" fill="none" stroke="currentColor" stroke-width="2" stroke-linecap="round" stroke-linejoin="round" >
  <path d="M18.9996 9.9V16.8C18.9996 17.6 18.5996 18.3 17.8996 18.6L11.3996 21.7C10.8996 21.9 10.1996 21.9 9.69961 21.7L3.19961 18.6C2.49961 18.3 2.09961 17.6 2.09961 16.8V9.3C2.09961 8.5 2.49961 7.8 3.19961 7.5L9.69961 4.4C10.1996 4.2 10.8996 4.2 11.3996 4.4L13.9996 5.7C13.9996 5.8 13.9996 5.9 13.9996 6C13.9996 8.2 15.7996 10 17.9996 10C18.3996 10 18.6996 10 18.9996 9.9Z" stroke-miterlimit="10"/>
  <path d="M7 10.5V13.5C7 14.6 7.9 15.5 9 15.5C10.1 15.5 11 14.6 11 13.5V10.5" stroke-miterlimit="10"/>
  <path d="M14 10.5V15.4" stroke-miterlimit="10"/>
  <path d="M22 6C22 7.9 20.7 9.4 19 9.9C18.7 10 18.4 10 18 10C15.8 10 14 8.2 14 6C14 5.9 14 5.8 14 5.7C14.2 3.7 15.9 2 18 2C20.2 2 22 3.8 22 6Z" stroke-miterlimit="10"/>
  <path d="M19.1004 5.89999C19.3004 5.69999 19.5004 5.39999 19.5004 5.09999C19.5004 4.29999 18.9004 3.79999 18.0004 3.79999C17.1004 3.79999 16.5004 4.29999 16.5004 5.09999C16.5004 5.39999 16.6004 5.69999 16.9004 5.89999C16.6004 6.09999 16.4004 6.49999 16.4004 6.89999C16.4004 7.69999 17.0004 8.19999 18.0004 8.19999C19.0004 8.19999 19.6004 7.69999 19.6004 6.89999C19.6004 6.49999 19.4004 6.09999 19.1004 5.89999ZM18.0004 5.49999C17.7004 5.49999 17.6004 5.39999 17.6004 5.09999C17.6004 4.79999 17.8004 4.69999 18.0004 4.69999C18.2004 4.69999 18.4004 4.79999 18.4004 5.09999C18.4004 5.39999 18.3004 5.49999 18.0004 5.49999ZM18.0004 6.29999C18.3004 6.29999 18.6004 6.39999 18.6004 6.79999C18.6004 7.09999 18.4004 7.29999 18.0004 7.29999C17.6004 7.29999 17.4004 7.09999 17.4004 6.79999C17.4004 6.39999 17.9004 6.29999 18.0004 6.29999Z"/>
  </svg>

<svg xmlns="http://www.w3.org/2000/svg" width="24" height="24" viewBox="0 0 24 24" fill="none" stroke="currentColor" stroke-width="2" stroke-linecap="round" stroke-linejoin="round">
  <path d="M14 10.5v4.9" />
  <path d="m14 5.7-2.6-1.3a2.48 2.48 0 0 0-1.7 0L3.2 7.5c-.7.3-1.1 1-1.1 1.8v7.5c0 .8.4 1.5 1.1 1.8l6.5 3.1a2.48 2.48 0 0 0 1.7 0l6.5-3.1c.7-.3 1.1-1 1.1-1.8V9.9c-.3.1-.6.1-1 .1a4 4 0 0 1-4-4zc.2-2 1.9-3.7 4-3.7a4 4 0 0 1 4 4c0 1.9-1.3 3.4-3 3.9-.3.1-.6.1-1 .1a4 4 0 0 1-4-4" />
  <path d="M18 5.5c-.3 0-.4-.1-.4-.4s.2-.4.4-.4.4.1.4.4-.1.4-.4.4" />
  <path d="M18 6.3c.3 0 .6.1.6.5 0 .3-.2.5-.6.5s-.6-.2-.6-.5c0-.4.5-.5.6-.5" />
  <path d="M19.1 5.9c.2-.2.4-.5.4-.8 0-.8-.6-1.3-1.5-1.3s-1.5.5-1.5 1.3a1 1 0 0 0 .4.8c-.3.2-.5.6-.5 1 0 .8.6 1.3 1.6 1.3s1.6-.5 1.6-1.3c0-.4-.2-.8-.5-1" />
  <path d="M7 10.5v3a2 2 0 0 0 4 0v-3" />
</svg>
